src/symbolic/devices/tablet-symbolic.svg

<svg xmlns="http://www.w3.org/2000/svg" width="16" height="16"><path d="M3 1C2 1 2 2 2 2v12c0 1 1 1 1 1h10s1 0 1-1V2s0-1-1-1zm1 2h8v9H4z" fill="#444"/></svg>

<svg xmlns="http://www.w3.org/2000/svg" width="16" height="16" version="1.1">
 <path style="fill:#444444" d="M 3,1 C 2,1 2,2 2,2 V 14 C 2,15 3,15 3,15 H 13 C 13,15 14,15 14,14 V 2 C 14,2 14,1 13,1 Z M 4,3 H 12 V 12 H 4 Z"/>
</svg>
